X:1
T:24 Arie Antiche
T:Sebben crudele
T:Sebben, crudele
T:Antonio Caldara (1670-1736) Alessandro Parisotti (1853-1913)
T:(24 Arie Antiche) Canzonetta
T:Low voices
T:Creative Commons copyright waiver (CC0 1.0 Universal)
T:Creative Commons copyright waiver (CC0 1.0 Universal)
T:Creative Commons copyright waiver (CC0 1.0 Universal)
T:Creative Commons copyright waiver (CC0 1.0 Universal)
T:Creative Commons copyright waiver (CC0 1.0 Universal)
T:Creative Commons copyright waiver (CC0 1.0 Universal)
T:Creative Commons copyright waiver (CC0 1.0 Universal)
T:Creative Commons copyright waiver (CC0 1.0 Universal)
C:Antonio Caldara (1670 - 1736)
Z:Creative Commons copyright waiver (CC0 1.0 Universal)
%%score 1 { ( 2 3 ) | 4 }
L:1/8
Q:1/4=84
M:3/4
K:Eb
V:1 treble nm="Voice"
V:2 treble nm="Piano"
V:3 treble 
V:4 bass 
V:1
"^Allegretto grazioso" z6 | z6 | z6 | z6 |!p!"^Voice" G2 G2 c2 | (B3 A) G2 | A2 (FG) A2 | %7
w: ||||Seb- ben, cru-|de- * le,|mi fai _ lan-|
 (!>!A2 G4) |"^cresc." =E2 F2 G2 | (A3 G) F2 | D2 E2 F2 |!<(!!<(! G2 A2 B2!<)!!<)! | %12
w: guir, _|Sem- pre fe-|de- * le,|sem- pre fe-|de- le ti|
!>(! (AG) G2[Q:1/4=75] (FE)!>)! |[Q:1/4=92] E6 | z6 | z6 | z6 | z6 |!mf! G2 =A2 B2 | !>!B4 =A2 | %20
w: vo- * glio a- *|mar.|||||Seb- ben, cru-|de- le,|
"^cresc." =A2 =B2 c2 | (!>!c4 =B2) |!f! c2 (!>!c_B) (!>!B_A) | (A G2) F!>(! (ED) | %24
w: mi fai lan-|guir, _|sem- pre * fe- *|de- * le ti _|
[Q:1/4=80]"^rit. assai" E2{DE} D3!>)! C |[Q:1/4=90]"^a tempo" C6 |!mf! G2 =A2 B2 | B4 =A2 | %28
w: vo- glio a-|mar|Seb- ben, cru-|de- le,|
"^cresc." =A2 =B2 c2 | (!>!c4 =B2) |!f! c2 (!>!c_B) (!>!B_A) | (A!>(! G2) F (ED) | %32
w: mi fai lan-|guir, _|sem- pre * fe- *|de- * le ti _|
[Q:1/4=76]"^rit. assai" E2{DE} D3 C!>)! |"^a tempo" C6[Q:1/4=90] |!p! G2 G2 A2 | B4 E2 | %36
w: vo- glio a-|mar.|Con la lun-|ghez- za|
 A2 (AB) (GA) | F6 |!f! !>!B2 !>!d2 !>!B2 | !>!G4 G2 | !>!=A2 !>!c2 !>!A2 | ^F4 D2 | %42
w: del mio * ser- *|vir|la tua fie-|rez- za,|la tua fie-|rez- za|
 (G=A) B2 (AG) | G6 | c2 =A2 G2 | ^F4 D2 |[Q:1/4=80]"^rit." (G=A) B2{AB} (A>G) | %47
w: sa- * prò stan- *|car|la tua fie-|rez- za|sa- * prò stan- *|
"^a tempo" G6[Q:1/4=90] | z6 | z6 | z6 | z6 |!p! G2 G2 c2 | (B3 A) G2 | A2 (FG) A2 | (!>!A2 G4) | %56
w: car.|||||Seb- ben, cru-|de- * le,|mi fai _ lan-|guir, _|
"^cresc." =E2 F2 G2 | (A3 G) F2 |"^cresc." D2 E2 F2 |!<(! G2 A2 B2!<)! | %60
w: Sem- pre fe-|de- * le,|sem- pre fe-|de- le ti|
!>(! (AG) G2"^rit."[Q:1/4=80] (F!>)!E) |"^a tempo"[Q:1/4=90] E6 | z6 | z6 | z6 | z6 | %66
w: vo- * glio a- *|mar.|||||
!mf! G2 =A2 B2 | !>!B4 =A2 |"^cresc." =A2 =B2 c2 | (!>!c4 =B2) |!f! c2 (!>!c_B) (!>!BA) | %71
w: Seb- ben, cru-|de- le,|mi fai lan-|guir, _|sem- pre * fe- *|
 (A G2)!>(! F (ED) |[Q:1/4=80]"^rit. assai" E2{DE} D3 C!>)! |[Q:1/4=90]"^a tempo" C6 | %74
w: de- * le ti _|vo- glio a-|mar.|
!mf! G2 =A2 B2 | !>!B4 =A2 |"^cresc." =A2 =B2 c2 | (!>!c4 =B2) |!f! c2 (!>!c_B) (!>!BA) | %79
w: Seb- ben, cru-|de- le,|mi fai lan-|guir, _|sem- pre * fe- *|
 (A G2)!>(! F (ED) |[Q:1/4=80]"^rit. assai" E2{DE} D !>!G3!>)! |[Q:1/4=70]!p! C6- | C6 |] %83
w: de- * le ti _|vo- glio a-|mar.||
V:2
 !>!G2 !>!G2 !>!c2 | (!>!B3 A G2) | (!>!A2 F!p!G A2) | (!>!A2 G4) | z (C[EG]C[Ec]C) | %5
 z (B,[EB]B,[EG]B,) | z (B,[EFA]B,[DFA]B,) | ([DFA]B,[EG]B,[EG]B,) | ([C=E]G,[CF]F,[CG]B,) | %9
 ([CA]A,[CA]A,[CF]A,) | ([B,D]F,[B,E]E,[B,F]A,) |!<(! ([B,G]G,[DF]A,[B,E]G,)!<)! | %12
!>(! ([A,CE]F,[B,E]G,[B,D]A,)!>)! | [G,E]!<(!(E,G,B,E!<)!F) | !>!G2 !>!G2 !>!A2 | (B3 A G2) | %16
 (!>!A2!p! FG [FA]2) | (!>![FA]2 G4) | (G2 =A2 B2) | (!>!B4 =A2) | =A2 =B2 c2 | (c4 =B2) | %22
 c3 B2 A- | A G2 F ED | E2 D3 C | [G,C](G,CDEF) | G2 =A2 B2 | (!>!B4 =A2) |"_cresc." =A2 =B2 c2 | %29
 (!>!c4 =B2) |!f! c3 _B2 _A- |"_dim."A G2 F ED | E2 D3 C | [G,C]!<(!(G,CDE!<)!F) | %34
 z (C[EG]C[EA]C) | z (B,[EB]B,[EB]B,) | z (B,[FA]B,[EG]B,) | ([DF]B,[DF]B,[F=A]E) | %38
 !>!B2 !>!d2 !>!B2 | !>!G2 !>!B2 !>!G2 | !>!=A2 !>!c2 !>!A2 | !>!^F2 !>!=A2 !>!G2 | %42
 !>!G2 !>!G2 !>!^F2 | G2 G2 G2 | !>!c2 !>!=A2 !>!G2 | !>!^F2 !>!=A2 !>!G2 | G2 G2 ^F2 | %47
 [B,G]!<(!(G,B,CDB)!<)! | !>!G2 !>!G2 !>!c2 | (!>!B3 A G2) | (!>!A2 F!p!G A2) | (A2 G4) | %52
 z (C[EG]C[Ec]C) | z (B,[EB]B,[EG]B,) | z (B,[EFA]B,[DFA]B,) | (!>![DFA]B,[EG]B,[EG]B,) | %56
 ([C=E]G,[CF]F,[CG]B,) | ([CA]A,[CA]A,[CF]A,) | ([B,D]F,[B,E]E,[B,F]A,) | %59
!<(! ([B,G]G,[DF]A,[B,E]G,)!<)! |!>(! ([A,CE]F,[B,E]G,[B,D]!>)!A,) | [G,E](E,G,B,EF) | %62
 !>!G2 !>!G2 !>!A2 | (B3 A G2) | (!>!A2 FG [FA]2) | ([FA]2 G4) |!mf! G2 =A2 B2 | (!>!B4 =A2) | %68
"_cresc." =A2 =B2 c2 | (c4 =B2) | c3 _B2 A- | A G2"_dim." F ED | E2 D3 C | [G,C](G,CDEF) | %74
 G2 =A2 B2 | (B4 =A2) |"_cresc." =A2 =B2 c2 | (!>!c4 =B2) | c3 B2 A- |A G2"_dim." F ED | E2 D3 C | %81
 [G,C](G,CDEG |!pp! c6) |] %83
V:3
 (ECECEC) | (EB,EB,EB,) | (EB,DB,DB,) | (DB,EB,EB,) | x6 | x6 | x6 | x6 | x6 | x6 | x6 | x6 | x6 | %13
 x6 | (EB,EB,EC) | (EB,EB,EB,) | ([EF]B,DB,DB,) | (DB,EB,EB,) | (EB,E=A,EG,) | z (CFCFC) | %20
 (FCF=B,F=A,) | z (DGDGD) | (CGFDEC) | D2 G,2 [G,C]2 | [A,C]2 C2 [G,=B,]2 | x6 | (EB,E=A,EG,) | %27
 z (CFCFC) | (FCF=B,F=A,) | z (DGDGD) | (CGFDEC) | D2 G,2 [G,C]2 | [A,C]2 C2 [G,=B,]2 | x6 | x6 | %35
 x6 | x6 | x6 | ([DF]DFDFD) | (EB,EB,EB,) | (ECECEC) | (D=A,DA,DB,) | (E=A,DB,CA,) | (G,B,EB,EB,) | %44
 (ECECEC) | (D=A,DA,DB,) | (E=A,DB,CA,) | x6 | (ECECEC) | (EB,EB,EB,) | (EB,DB,DB,) | (DB,EB,EB,) | %52
 x6 | x6 | x6 | x6 | x6 | x6 | x6 | x6 | x6 | x6 | (E!f!B,EB,EB,) | (EB,EB,E!p!B,) | %64
 ([EF]B,DB,DB,) | (DB,EB,EB,) | (EB,E=A,EG,) | z (CFCFC) | (FCF=B,F=A,) | z (DGDGD) | (CGFDEC) | %71
 D2 G,2 [G,C]2 | [A,C]2 C2 [G,=B,]2 | x6 | (EB,E=A,EG,) | z (CFCFC) | (FCF=B,F=A,) | z (DGDGD) | %78
 (CGFDEC) | D2 G,2 [G,C]2 | [A,C]2 C2 [G,=B,]2 | x6 | x6 |] %83
V:4
!f! (C,4 A,,2 | G,,4 E,,2 | F,,4 B,,2 | E,,6) |!p! C,4 A,,2 | G,,4 E,,2 | F,,2 B,,2 (B,,,2 | E,,6 | %8
 C,2 A,,2 =E,,2 | F,,4) (A,,2 | B,,2 G,,2 D,,2 |!<(! E,,2 F,,2 G,,2!<)! | A,,2) B,,2 B,,,2 | E,,6 | %14
 (C,4 A,,2 | G,,4 E,,2 | F,,4 B,,2 | E,,6) |!mf! E,6 |!<(! F,6 |"^cresc." F,6 | G,6!<)! | %22
!f! E,2 D,2 C,2 | =B,,4"^dim." C,2 |"^rit. assai" F,2 G,2 [G,,F,]2 | %25
"^a tempo" !arpeggio![C,,G,,E,]6 |!mf! E,6 | F,6 |!<(! F,6 | G,6!<)! | E,2 D,2 C,2 | =B,,4 C,2 | %32
"^rit. assai" F,2 G,2 [G,,F,]2 |"^a tempo" !arpeggio![C,,G,,E,]6 |!p! (C,4 A,,2) | G,,6 | %36
 (F,,2 D,,2 E,,2 | B,,2) B,,2 C,2 |!f! D,6 | !>!E,2 !>!G,2 !>!E,2 | C,6 | !>!D,2 !>!C,2 !>!B,,2 | %42
 (C,2 D,2 D,,2 | E,,2) (!>!E,2 D,2) | C,6 | !>!D,2 !>!C,2 !>!B,,2 |"^rit." (C,2 D,2 D,,2 | %47
"^a tempo" G,,6) |!f! (E,4 A,,2 | G,,4 E,,2 | F,,4 B,,2 | E,,6) |!p! (C,4 A,,2 | G,,4 E,,2 | %54
 F,,2 B,,2 B,,,2 | E,,6) |"^cresc." (C,2 A,,2 =E,,2 | F,,4 A,,2 |"^cresc." B,,2 G,,2 D,,2 | %59
 E,,2 F,,2 G,,2 | A,,2 B,,2"^rit." B,,,2 |"^a tempo" E,,6) | (C,4 A,,2 | G,,4 E,,2 | F,,4 B,,2 | %65
 E,,6) | E,6 | F,6 |!<(! F,6 | G,6!<)! |!f! E,2 D,2 C,2 | =B,,4 C,2 | %72
"^rit. assai" F,2 G,2 [G,,F,]2 |"^a tempo" !arpeggio![C,,G,,E,]6 |!mf! E,6 | F,6 | F,6 | G,6 | %78
!f! E,2 D,2 C,2 | =B,,4 C,2 |"^rit. assai" F,2 G,2 [G,,F,]2 | !arpeggio![C,,G,,E,]6- | %82
 [C,,G,,E,]6 |] %83

